X:551
T:The Arran Boat
M:6/8
L:1/8
Q:1/4=50
K:EM
"Em"E>FE B>^cd|"D"A<FD A<FD|"Em"E>FE B>^cd|"D"A<FD "Em"E3|!
"Em"E>FE B>^cd|"D"A<FD A<FD|"Em"E>FE B>^cd|"D"A<FD "Em"E3|!
"Em"e>fe g>fe|"G"dfe g>fe|"Bm"d<Bd "Em"e3|!
"Em"e>fe g>fe|"G"d>BG "D"A>FD|"Em"E>FE B>^cd|"D"A>FD "Em"E3||
